public/static/img/bottom/licai1.svg

<svg xmlns="http://www.w3.org/2000/svg" width="28" height="28" viewBox="0 0 28 28" fill="none">
  <path fill-rule="evenodd" clip-rule="evenodd" d="M19.33 4.2H8C5.90132 4.2 4.2 5.90132 4.2 7.99999V19.33C4.2 21.4287 5.90132 23.13 7.99999 23.13H19.33C21.4287 23.13 23.13 21.4287 23.13 19.33V8C23.13 5.90132 21.4287 4.2 19.33 4.2ZM8 2C4.68629 2 2 4.68629 2 7.99999V19.33C2 22.6437 4.68629 25.33 7.99999 25.33H19.33C22.6437 25.33 25.33 22.6437 25.33 19.33V8C25.33 4.68629 22.6437 2 19.33 2H8Z" fill="#888888"/>
  <path d="M9.2 15.5999H15.8C16.1313 15.5999 16.4 15.3314 16.4 14.9999C16.4 14.6686 16.1313 14.3999 15.8 14.3999H11C9.34315 14.3999 8 13.0569 8 11.3999C8 9.74313 9.34315 8.4 11 8.4H12.2V6H14.6V8.4H17.6V10.7999H11C10.6686 10.7999 10.4 11.0686 10.4 11.3999C10.4 11.7314 10.6686 11.9999 11 11.9999H15.8C17.4569 11.9999 18.8 13.3431 18.8 14.9999C18.8 16.6569 17.4569 17.9999 15.8 17.9999H14.6V20.3999H12.2V17.9999H9.2V15.5999Z" fill="#888888"/>
</svg>

<svg xmlns="http://www.w3.org/2000/svg" width="28" height="28" fill="none"><path fill-rule="evenodd" clip-rule="evenodd" d="M19.33 4.2H8A3.8 3.8 0 0 0 4.2 8v11.33a3.8 3.8 0 0 0 3.8 3.8h11.33a3.8 3.8 0 0 0 3.8-3.8V8a3.8 3.8 0 0 0-3.8-3.8ZM8 2a6 6 0 0 0-6 6v11.33a6 6 0 0 0 6 6h11.33a6 6 0 0 0 6-6V8a6 6 0 0 0-6-6H8Z" fill="#888"/><path d="M9.2 15.6h6.6a.6.6 0 1 0 0-1.2H11a3 3 0 1 1 0-6h1.2V6h2.4v2.4h3v2.4H11a.6.6 0 0 0 0 1.2h4.8a3 3 0 0 1 0 6h-1.2v2.4h-2.4V18h-3v-2.4Z" fill="#888"/></svg>
